X: 4855
T: Braes Of Auchtertyre, The
R: strathspey
M: 4/4
K: Dmajor
(3DDD D>G F<AA>B|d>ef>e d>B A2|(3BBB B>^A B2 b2|a<dg>f e2- e>d|
D3 E F<A-A>B|defe d>BA<d|B<dA<d G<dF<d|f/e/d/c/ d>F E2 D2||
f>ga>b a<fd>a|b>ge>a f<ed>A|(3BBB B>^A B2 b2|a<dg>f e2- e>g|
(3fff a>b a<f d2|(3bag e2 (3fed A2|B<dA<d G<d F2|f/e/d/c/ d>F E2 D2||

